contributed-vectors/geocaching.svg

<svg xmlns="http://www.w3.org/2000/svg" xml:space="preserve" style="fill-rule:evenodd;clip-rule:evenodd;stroke-linejoin:round;stroke-miterlimit:2" viewBox="0 0 192 192"><path d="M164.5 21.5c0-5.519-4.481-10-10-10h-133c-5.519 0-10 4.481-10 10v133c0 5.519 4.481 10 10 10h133c5.519 0 10-4.481 10-10v-133Z" style="fill:#98dc9a" transform="translate(8 8)"/><path d="M44.703 45.236H91.83v47.127H44.703z" style="fill:#fff" transform="translate(17.46 62.415) scale(.82177)"/><path d="M44.703 45.236H91.83v47.127H44.703z" style="fill:#fff" transform="translate(62.34 17.535) scale(.82177)"/><path d="M128.009 68.827c6.228 7.328 9.986 16.815 9.986 27.173 0 23.178-18.817 41.995-41.995 41.995-10.358 0-19.845-3.758-27.173-9.986l5.287-5.286A34.391 34.391 0 0 0 96 130.548c19.067 0 34.548-15.481 34.548-34.548a34.391 34.391 0 0 0-7.825-21.886l5.286-5.287Zm-64.285 54.029A41.815 41.815 0 0 1 54.005 96c0-23.178 18.817-41.995 41.995-41.995a41.815 41.815 0 0 1 26.856 9.719l-5.292 5.292A34.393 34.393 0 0 0 96 61.452c-19.067 0-34.548 15.481-34.548 34.548a34.393 34.393 0 0 0 7.564 21.564l-5.292 5.292Z" style="fill:#98dc9a" transform="translate(17.11 17.623) scale(.82177)"/><path d="M44.703 45.236H91.83v47.127H44.703z" style="fill:#fff" transform="translate(17.46 17.535) scale(.82177)"/><path d="M61.352 92.804s.237-16.994 10.644-24.779c10.406-7.785 10.962-10.627 11.677-16.761h-2.954s-.867 7.887-12.026 13.591c-13.581 6.942-14.529 27.949-14.529 27.949h7.188Z" style="fill:#98dc9a" transform="translate(17.11 17.623) scale(.82177)"/><path d="M59.921 86.22s1.668-10.41 12.075-18.195c10.406-7.785 10.962-10.627 11.677-16.761h-2.954s-.867 7.887-12.026 13.591c-13.581 6.942-15.96 21.365-15.96 21.365h7.188" style="fill:#98dc9a" transform="matrix(-.82177 0 0 .82177 132.664 17.623)"/><circle cx="69.941" cy="56.086" r="3.844" style="fill:#98dc9a" transform="translate(17.244 17.623) scale(.82177)"/><path d="M44.703 45.236H91.83v47.127H44.703z" style="fill:#fff" transform="translate(62.34 62.415) scale(.82177)"/><path d="M106.477 110.811c3.783-3.667 11.983-3.729 21.162-.432 2.8 1.006 7.462.432 7.462.432.204 1.235-4.799 8.729-12.318 9.258-7.519.528-9.371 4.933-9.371 4.933l6.192 26.819-3.474.802-9.653-41.812Z" style="fill:#98dc9a" transform="translate(17.11 17.623) scale(.82177)"/></svg>

<?xml version="1.0" encoding="UTF-8" standalone="no"?>
<!DOCTYPE svg PUBLIC "-//W3C//DTD SVG 1.1//EN" "http://www.w3.org/Graphics/SVG/1.1/DTD/svg11.dtd">
<svg width="100%" height="100%" viewBox="0 0 192 192" version="1.1" xmlns="http://www.w3.org/2000/svg" xmlns:xlink="http://www.w3.org/1999/xlink" xml:space="preserve" xmlns:serif="http://www.serif.com/" style="fill-rule:evenodd;clip-rule:evenodd;stroke-linejoin:round;stroke-miterlimit:2;">
    <g id="Layer1">
        <g transform="matrix(1,0,0,1,8,8)">
            <path d="M164.5,21.5C164.5,15.981 160.019,11.5 154.5,11.5L21.5,11.5C15.981,11.5 11.5,15.981 11.5,21.5L11.5,154.5C11.5,160.019 15.981,164.5 21.5,164.5L154.5,164.5C160.019,164.5 164.5,160.019 164.5,154.5L164.5,21.5Z" style="fill:rgb(152,220,154);"/>
        </g>
        <g transform="matrix(0.82177,0,0,0.82177,17.1101,17.6227)">
            <g transform="matrix(1,0,0,1,0.426666,54.5067)">
                <rect x="44.703" y="45.236" width="47.127" height="47.127" style="fill:white;"/>
            </g>
            <g transform="matrix(1,0,0,1,55.04,-0.106667)">
                <rect x="44.703" y="45.236" width="47.127" height="47.127" style="fill:white;"/>
            </g>
            <path d="M128.009,68.827C134.237,76.155 137.995,85.642 137.995,96C137.995,119.178 119.178,137.995 96,137.995C85.642,137.995 76.155,134.237 68.827,128.009L74.114,122.723C80.073,127.612 87.696,130.548 96,130.548C115.067,130.548 130.548,115.067 130.548,96C130.548,87.696 127.612,80.073 122.723,74.114L128.009,68.827ZM63.724,122.856C57.656,115.573 54.005,106.21 54.005,96C54.005,72.822 72.822,54.005 96,54.005C106.21,54.005 115.573,57.656 122.856,63.724L117.564,69.016C111.651,64.283 104.153,61.452 96,61.452C76.933,61.452 61.452,76.933 61.452,96C61.452,104.153 64.283,111.651 69.016,117.564L63.724,122.856Z" style="fill:rgb(152,220,154);"/>
            <g>
                <g transform="matrix(1,0,0,1,0.426666,-0.106667)">
                    <rect x="44.703" y="45.236" width="47.127" height="47.127" style="fill:white;"/>
                </g>
                <g>
                    <path d="M61.352,92.804C61.352,92.804 61.589,75.81 71.996,68.025C82.402,60.24 82.958,57.398 83.673,51.264L80.719,51.264C80.719,51.264 79.852,59.151 68.693,64.855C55.112,71.797 54.164,92.804 54.164,92.804L61.352,92.804Z" style="fill:rgb(152,220,154);"/>
                    <g transform="matrix(-1,0,0,1,140.616,0)">
                        <path d="M59.921,86.22C59.921,86.22 61.589,75.81 71.996,68.025C82.402,60.24 82.958,57.398 83.673,51.264L80.719,51.264C80.719,51.264 79.852,59.151 68.693,64.855C55.112,71.797 52.733,86.22 52.733,86.22L59.921,86.22" style="fill:rgb(152,220,154);"/>
                    </g>
                    <g transform="matrix(1,0,0,1,0.162688,0)">
                        <circle cx="69.941" cy="56.086" r="3.844" style="fill:rgb(152,220,154);"/>
                    </g>
                </g>
            </g>
            <g>
                <g transform="matrix(1,0,0,1,55.04,54.5067)">
                    <rect x="44.703" y="45.236" width="47.127" height="47.127" style="fill:white;"/>
                </g>
                <path d="M106.477,110.811C110.26,107.144 118.46,107.082 127.639,110.379C130.439,111.385 135.101,110.811 135.101,110.811C135.305,112.046 130.302,119.54 122.783,120.069C115.264,120.597 113.412,125.002 113.412,125.002L119.604,151.821L116.13,152.623L106.477,110.811Z" style="fill:rgb(152,220,154);"/>
            </g>
        </g>
    </g>
</svg>
